public/flags/LK.svg

<svg fill="none" height="53" viewBox="0 0 61 53" width="61" xmlns="http://www.w3.org/2000/svg" xmlns:xlink="http://www.w3.org/1999/xlink"><mask id="a" height="43" maskUnits="userSpaceOnUse" width="59" x="1" y="3"><rect fill="#fff" height="42.5" rx="4.24286" width="59" x="1" y="3"/></mask><rect fill="#fff" height="42.5" rx="4.24286" width="59" x="1" y="3"/><g mask="url(#a)"><path d="m1 3h59v42.5h-59z" fill="#ffbf19"/><path clip-rule="evenodd" d="m23.4761 5.83331h30.8857c1.5622 0 2.8286 1.2664 2.8286 2.82857v31.17622c0 1.5622-1.2664 2.8285-2.8286 2.8285h-30.8857z" fill="#a52531" fill-rule="evenodd"/><path d="m3.80957 8.66188c0-1.56218 1.26639-2.82857 2.82857-2.82857h5.59996v36.83329h-5.59996c-1.56218 0-2.82857-1.2663-2.82857-2.8285z" fill="#03664f"/><rect fill="#ff6816" height="36.8333" rx="1.41429" width="8.42857" x="12.2378" y="5.83331"/><g clip-rule="evenodd" fill="#ffbf18" fill-rule="evenodd"><path d="m29.0952 10.0833c0 .7824-.6289 1.4167-1.4047 1.4167-.7759 0-1.4048-.6343-1.4048-1.4167v-1.41667h1.4048c.7758 0 1.4047.63426 1.4047 1.41667zm22.4761 0c0 .7824.629 1.4167 1.4048 1.4167s1.4048-.6343 1.4048-1.4167v-1.41666h-1.4048c-.7758 0-1.4048.63426-1.4048 1.41666zm1.4048 26.9166c-.7758 0-1.4048.6343-1.4048 1.4167s.629 1.4167 1.4048 1.4167h1.4048v-1.4167c0-.7824-.629-1.4167-1.4048-1.4167zm-23.8809 1.4167c0-.7824-.629-1.4167-1.4048-1.4167s-1.4048.6343-1.4048 1.4167v1.4167h1.4048c.7758 0 1.4048-.6343 1.4048-1.4167z"/><path d="m34.7144 29.7073c0-.6667-.5405-1.2073-1.2073-1.2073-.1307 0-.2602-.021-.3833-.0653-.8144-.2937-4.0284-1.5308-4.0284-2.768 0-.7776.4232-1.5551.805-2.0985.3303-.47.4533-1.079.2511-1.6167-.4772-1.2691-1.2538-3.5889-1.0561-4.7848.1041-.6304.5177-1.183.9968-1.6288.7508-.6986 1.8127-.0456 1.8127.9799v5.4448c0 .534.3007 1.0224.7775 1.2628l1.4165.7143c.367.185.8115.1127 1.1009-.1791.4538-.4577.3289-1.225-.2466-1.5151l-1.6435-.8288v-1.4167c.7039 0 .9294-.948.3008-1.2649l-.3008-.1517v-1.4167h2.2202c.3771 0 .7387-.1506 1.0042-.4185l.5749-.5797c.2656-.2678.6271-.4185 1.0043-.4185h1.3428c.5374 0 1.0284.3046 1.2671.7861l.757 1.5268c.1653.3335.1925.7187.0757 1.0721l-.6083 1.8402c-.3024.9152.379 1.8582 1.3429 1.8582h4.6031c.2968 0 .5812-.1185.7901-.3292.5323-.5368.3859-1.4367-.2891-1.777l-1.1417-.5757c-.1975-.0996-.4156-.1515-.6368-.1515h-1.0588c-.7811 0-1.4143-.6332-1.4143-1.4142v-.8368c0-.373.1474-.7309.41-.9958l.9947-1.0032v1.4286c0 .7758.629 1.4048 1.4048 1.4048h1.9322c.5374 0 1.0283.3046 1.2671.786l.9031 1.8217c.074.1492.1211.3095.1362.4754.0644.7109.2191 2.7729-.0243 4.0002-.1973.9949-.7503 1.9157-1.1007 2.4236-.1875.2717-.3041.5905-.3041.9206v4.0802c0 .594-.4815 1.0756-1.0756 1.0756-.798 0-1.3182-.8385-.9637-1.5534l.4884-.9851c.0921-.1857.0921-.4039 0-.5897l-.0655-.1321c-.2955-.5959-1.1931-.3856-1.1931.2795 0 .097-.0224.1927-.0655.2796l-.9924 2.0017c-.2125.4285-.6494.6995-1.1276.6995-.9338 0-1.5424-.981-1.1276-1.8176l.3564-.7189c.0968-.1952.1472-.4102.1472-.6282v-1.0877c0-.7811-.6332-1.4143-1.4143-1.4143h-2.7905c-.7811 0-1.4143.6332-1.4143 1.4143v1.0877c0 .218-.0503.433-.1471.6282l-.9108 1.837c-.2124.4285-.6494.6995-1.1276.6995-.9337 0-1.5423-.981-1.1276-1.8176l.3564-.7189c.0968-.1952.1472-.4102.1472-.6282z"/></g></g></svg>

<svg width="61" height="53" viewBox="0 0 61 53" fill="none" xmlns="http://www.w3.org/2000/svg">
<rect x="1" y="3" width="59" height="42.5" rx="4.24286" fill="white"/>
<mask id="mask0" mask-type="alpha" maskUnits="userSpaceOnUse" x="1" y="3" width="59" height="43">
<rect x="1" y="3" width="59" height="42.5" rx="4.24286" fill="white"/>
</mask>
<g mask="url(#mask0)">
<rect x="1" y="3" width="59" height="42.5" fill="#FFBF19"/>
<path fill-rule="evenodd" clip-rule="evenodd" d="M23.4761 5.83331H54.3618C55.924 5.83331 57.1904 7.09971 57.1904 8.66188V39.8381C57.1904 41.4003 55.924 42.6666 54.3618 42.6666H23.4761V5.83331Z" fill="#A52531"/>
<path d="M3.80957 8.66188C3.80957 7.0997 5.07596 5.83331 6.63814 5.83331H12.2381V42.6666H6.63814C5.07596 42.6666 3.80957 41.4003 3.80957 39.8381V8.66188Z" fill="#03664F"/>
<rect x="12.2378" y="5.83331" width="8.42857" height="36.8333" rx="1.41429" fill="#FF6816"/>
<path fill-rule="evenodd" clip-rule="evenodd" d="M29.0952 10.0833C29.0952 10.8657 28.4663 11.5 27.6905 11.5C26.9146 11.5 26.2857 10.8657 26.2857 10.0833V8.66663H27.6905C28.4663 8.66663 29.0952 9.30089 29.0952 10.0833ZM51.5713 10.0833C51.5713 10.8657 52.2003 11.5 52.9761 11.5C53.7519 11.5 54.3809 10.8657 54.3809 10.0833V8.66664H52.9761C52.2003 8.66664 51.5713 9.3009 51.5713 10.0833ZM52.9761 36.9999C52.2003 36.9999 51.5713 37.6342 51.5713 38.4166C51.5713 39.199 52.2003 39.8333 52.9761 39.8333H54.3809V38.4166C54.3809 37.6342 53.7519 36.9999 52.9761 36.9999ZM29.0952 38.4166C29.0952 37.6342 28.4662 36.9999 27.6904 36.9999C26.9146 36.9999 26.2856 37.6342 26.2856 38.4166V39.8333H27.6904C28.4662 39.8333 29.0952 39.199 29.0952 38.4166Z" fill="#FFBF18"/>
<path fill-rule="evenodd" clip-rule="evenodd" d="M34.7144 29.7073C34.7144 29.0406 34.1739 28.5 33.5071 28.5V28.5C33.3764 28.5 33.2469 28.479 33.1238 28.4347C32.3094 28.141 29.0954 26.9039 29.0954 25.6667C29.0954 24.8891 29.5186 24.1116 29.9004 23.5682C30.2307 23.0982 30.3537 22.4892 30.1515 21.9515C29.6743 20.6824 28.8977 18.3626 29.0954 17.1667C29.1995 16.5363 29.6131 15.9837 30.0922 15.5379C30.843 14.8393 31.9049 15.4923 31.9049 16.5178V21.9626C31.9049 22.4966 32.2056 22.985 32.6824 23.2254L34.0989 23.9397C34.4659 24.1247 34.9104 24.0524 35.1998 23.7606V23.7606C35.6536 23.3029 35.5287 22.5356 34.9532 22.2455L33.3097 21.4167V20V20C34.0136 20 34.2391 19.052 33.6105 18.7351L33.3097 18.5834V17.1667H35.5299C35.907 17.1667 36.2686 17.0161 36.5341 16.7482L37.109 16.1685C37.3746 15.9007 37.7361 15.75 38.1133 15.75H39.4561C39.9935 15.75 40.4845 16.0546 40.7232 16.5361L41.4802 18.0629C41.6455 18.3964 41.6727 18.7816 41.5559 19.135L40.9476 20.9752C40.6452 21.8904 41.3266 22.8334 42.2905 22.8334H46.8936C47.1904 22.8334 47.4748 22.7149 47.6837 22.5042V22.5042C48.216 21.9674 48.0696 21.0675 47.3946 20.7272L46.2529 20.1515C46.0554 20.0519 45.8373 20 45.6161 20H44.5573C43.7762 20 43.143 19.3668 43.143 18.5858V17.749C43.143 17.376 43.2904 17.0181 43.553 16.7532L44.5477 15.75V17.1786C44.5477 17.9544 45.1767 18.5834 45.9525 18.5834V18.5834H47.8847C48.4221 18.5834 48.913 18.888 49.1518 19.3694L50.0549 21.1911C50.1289 21.3403 50.176 21.5006 50.1911 21.6665C50.2555 22.3774 50.4102 24.4394 50.1668 25.6667C49.9695 26.6616 49.4165 27.5824 49.0661 28.0903C48.8786 28.362 48.762 28.6808 48.762 29.0109V33.0911C48.762 33.6851 48.2805 34.1667 47.6864 34.1667V34.1667C46.8884 34.1667 46.3682 33.3282 46.7227 32.6133L47.2111 31.6282C47.3032 31.4425 47.3032 31.2243 47.2111 31.0385L47.1456 30.9064C46.8501 30.3105 45.9525 30.5208 45.9525 31.1859V31.1859C45.9525 31.2829 45.9301 31.3786 45.887 31.4655L44.8946 33.4672C44.6821 33.8957 44.2452 34.1667 43.767 34.1667V34.1667C42.8332 34.1667 42.2246 33.1857 42.6394 32.3491L42.9958 31.6302C43.0926 31.435 43.143 31.22 43.143 31.002L43.143 29.9143C43.143 29.1332 42.5098 28.5 41.7287 28.5H38.9382C38.1571 28.5 37.5239 29.1332 37.5239 29.9143V31.002C37.5239 31.22 37.4736 31.435 37.3768 31.6302L36.466 33.4672C36.2536 33.8957 35.8166 34.1667 35.3384 34.1667V34.1667C34.4047 34.1667 33.7961 33.1857 34.2108 32.3491L34.5672 31.6302C34.664 31.435 34.7144 31.22 34.7144 31.002V29.7073Z" fill="#FFBF18"/>
</g>
</svg>
